public/palm.svg

<svg
   width="560"
   height="470"
   viewBox="0 0 560 470"
   fill="none"
   version="1.1"
   id="svg43"
   xmlns="http://www.w3.org/2000/svg"
   xmlns:svg="http://www.w3.org/2000/svg">
  <g
     clip-path="url(#clip0_58_12)"
     id="g43"
     transform="scale(1.7728177)">
    <path
       d="M 142.11085,264.00691 153.2,97.7698 h 8.6 l 11.09536,166.2014 z M 169.80337,263.8803 158.92,100.862 h -2.819 l -10.90888,163.13597 z"
       fill="#ffffff"
       id="path1" />
    <path
       d="m 169.779,253.248 -14.4089,10.75128 5.28169,0.003 10.97521,-8.27764 z"
       fill="#ffffff"
       id="path2" />
    <path
       d="m 168.488,233.572 -25.071,18.695 1.842,2.48 25.071,-18.695 z"
       fill="#ffffff"
       id="path3" />
    <path
       d="m 167.165,213.859 -22.29,16.639 1.844,2.48 22.29,-16.64 z"
       fill="#ffffff"
       id="path4" />
    <path
       d="m 165.84,194.101 -19.518,14.57 1.844,2.48 19.517,-14.571 z"
       fill="#ffffff"
       id="path5" />
    <path
       d="m 164.511,174.4 -16.718,12.503 1.846,2.478 16.719,-12.504 z"
       fill="#ffffff"
       id="path6" />
    <path
       d="m 163.219,154.67 -13.987,10.449 1.845,2.479 13.987,-10.449 z"
       fill="#ffffff"
       id="path7" />
    <path
       d="m 161.905,134.967 -11.216,8.379 1.845,2.478 11.216,-8.378 z"
       fill="#ffffff"
       id="path8" />
    <path
       d="m 160.574,115.198 -8.419,6.31 1.849,2.476 8.418,-6.31 z"
       fill="#ffffff"
       id="path9" />
    <path
       d="M 300.968,162.001 C 262.863,104.902 161.327,100.903 160.319,100.862 l 0.103,-3.0922 c 1.028,0.0412 104.129,4.0812 143.118,62.5002 l -2.572,1.711 z"
       fill="#ffffff"
       id="path10" />
    <path
       d="M 280.661,157.693 C 244.799,104.449 161.142,100.882 160.298,100.862 l 0.103,-3.0922 c 0.864,0.0206 86.085,3.6692 122.811,58.1922 z"
       fill="#ffffff"
       id="path11" />
    <path
       d="m 261.855,153.632 c -26.294,-45.143 -100.898,-52.708 -101.66,-52.77 l 0.288,-3.0717 c 0.762,0.0824 76.929,7.7717 104.026,54.2957 l -2.654,1.567 z"
       fill="#ffffff"
       id="path12" />
    <path
       d="m 242.927,149.592 c -21.933,-40.073 -82.156,-48.648 -82.773,-48.73 l 0.412,-3.0717 c 0.617,0.0824 62.382,8.8847 85.056,50.3177 z"
       fill="#ffffff"
       id="path13" />
    <path
       d="m 226.24,145.985 c -16.974,-35.167 -65.674,-45.061 -66.168,-45.144 l 0.596,-3.03 c 2.058,0.4123 50.717,10.307 68.37,46.834 l -2.777,1.34 z"
       fill="#ffffff"
       id="path14" />
    <path
       d="M 207.641,142.047 C 190.337,106.86 160.38,100.882 160.092,100.841 l 0.556,-3.0507 c 1.296,0.2473 31.747,6.2457 49.77,42.8967 z"
       fill="#ffffff"
       id="path15" />
    <path
       d="m 190.481,138.172 c -7.633,-26.942 -30.512,-37.351 -30.759,-37.434 l 1.235,-2.8239 c 0.987,0.4328 24.442,11.0279 32.487,39.4339 l -2.963,0.845 z"
       fill="#ffffff"
       id="path16" />
    <path
       d="M 161.059,100.697 159.64,97.9552 C 160.566,97.4811 252.494,50.606 315,82.5157 l -1.399,2.7622 C 252.514,54.0897 161.965,100.243 161.059,100.717 Z"
       fill="#ffffff"
       id="path17" />
    <path
       d="m 161.059,100.697 -1.419,-2.7417 c 0.761,-0.3916 76.908,-38.9182 135.526,-9.2761 l -1.399,2.7623 C 236.569,62.5207 161.78,100.326 161.039,100.697 Z"
       fill="#ffffff"
       id="path18" />
    <path
       d="m 160.977,100.738 -1.255,-2.824 c 0.7,-0.3092 70.921,-30.8584 117.235,-3.4837 l -1.563,2.6591 C 230.438,70.5393 161.656,100.429 160.957,100.738 Z"
       fill="#ffffff"
       id="path19" />
    <path
       d="m 256.897,102.82 c -38.64,-24.2415 -95.405,-2.288 -95.982,-2.061 l -1.131,-2.8862 c 0.576,-0.2268 58.782,-22.7573 98.759,2.3082 l -1.646,2.618 z"
       fill="#ffffff"
       id="path20" />
    <path
       d="m 240.581,107.829 c -31.912,-22.3656 -79.275,-7.194 -79.748,-7.05 l -0.967,-2.9475 c 1.996,-0.6596 49.297,-15.8105 82.484,7.4415 l -1.769,2.535 z"
       fill="#ffffff"
       id="path21" />
    <path
       d="m 161.697,100.078 -2.695,-1.5044 C 159.516,97.6666 210.521,7.83302 280.229,0.0205078 L 280.578,3.09192 C 212.455,10.7395 162.191,99.192 161.697,100.099 Z"
       fill="#ffffff"
       id="path22" />
    <path
       d="m 161.697,100.078 -2.695,-1.5251 c 0.411,-0.7421 42.837,-74.8888 108.059,-82.4745 l 0.35,3.0714 C 203.732,26.55 162.088,99.3362 161.677,100.078 Z"
       fill="#ffffff"
       id="path23" />
    <path
       d="m 161.656,100.161 -2.592,-1.6698 c 0.411,-0.6391 42.281,-64.8707 95.981,-67.571 l 0.144,3.092 c -52.136,2.6179 -93.121,65.5096 -93.533,66.1488 z"
       fill="#ffffff"
       id="path24" />
    <path
       d="m 161.615,100.202 -2.531,-1.7728 c 0.371,-0.5154 36.582,-51.4101 83.719,-52.5232 l 0.082,3.092 c -45.614,1.0719 -80.92,50.7092 -81.27,51.204 z"
       fill="#ffffff"
       id="path25" />
    <path
       d="m 161.574,100.284 -2.428,-1.9166 c 1.296,-1.6284 31.582,-39.2893 71.23,-39.2893 0.576,0 1.132,0 1.708,0.0206 l -0.083,3.0921 c -39.071,-1.0719 -70.139,37.702 -70.448,38.0932 z"
       fill="#ffffff"
       id="path26" />
    <path
       d="M 14.0526,162.001 11.4807,160.29 C 50.4699,101.872 153.57,97.8315 154.599,97.7903 l 0.103,3.0917 c -1.029,0.042 -102.5449,4.041 -140.6494,61.14 z"
       fill="#ffffff"
       id="path27" />
    <path
       d="m 34.3599,157.693 -2.5513,-1.731 C 68.5346,101.439 153.755,97.7904 154.619,97.7698 l 0.103,3.0922 c -0.843,0.02 -84.5209,3.628 -120.3621,56.831 z"
       fill="#ffffff"
       id="path28" />
    <path
       d="M 53.1447,153.632 50.47,152.066 C 77.567,105.541 153.735,97.8316 154.496,97.7698 l 0.288,3.0712 c -0.741,0.062 -75.3653,7.627 -101.6393,52.771 z"
       fill="#ffffff"
       id="path29" />
    <path
       d="m 72.094,149.592 -2.7158,-1.484 C 92.0516,106.675 153.817,97.8727 154.434,97.7903 l 0.412,3.0717 c -0.597,0.082 -60.8604,8.678 -82.7725,48.73 z"
       fill="#ffffff"
       id="path30" />
    <path
       d="m 88.7802,145.985 -2.7776,-1.34 C 103.635,108.097 152.295,98.2027 154.373,97.811 l 0.596,3.03 c -0.494,0.103 -49.215,10.018 -66.1683,45.144 z"
       fill="#ffffff"
       id="path31" />
    <path
       d="m 107.38,142.047 -2.778,-1.36 c 18.003,-36.63 48.474,-42.6494 49.771,-42.8967 l 0.555,3.0507 c -0.309,0.062 -30.265,6.04 -47.548,41.206 z"
       fill="#ffffff"
       id="path32" />
    <path
       d="m 124.519,138.172 -2.963,-0.845 c 8.045,-28.405 31.479,-39.0006 32.487,-39.4334 l 1.235,2.8244 c -0.226,0.103 -23.126,10.492 -30.759,37.434 z"
       fill="#ffffff"
       id="path33" />
    <path
       d="M 153.941,100.697 C 153.035,100.223 62.4856,54.0692 1.39909,85.2574 L 0,82.4952 C 62.5062,50.5855 154.434,97.4606 155.36,97.9347 l -1.419,2.7413 z"
       fill="#ffffff"
       id="path34" />
    <path
       d="M 153.941,100.697 C 153.2,100.305 78.4105,62.5207 21.2126,91.4415 L 19.8135,88.6792 C 78.431,59.0371 154.578,97.5637 155.34,97.9553 l -1.42,2.7417 z"
       fill="#ffffff"
       id="path35" />
    <path
       d="M 154.023,100.738 C 153.344,100.429 84.5418,70.5394 39.5859,97.0896 l -1.5637,-2.6592 c 46.3139,-27.354 116.5358,3.1745 117.2348,3.4837 l -1.255,2.8239 z"
       fill="#ffffff"
       id="path36" />
    <path
       d="m 58.1033,102.82 -1.646,-2.618 C 96.4341,75.1155 154.62,97.6666 155.216,97.8934 l -1.131,2.8856 c -0.576,-0.227 -57.3423,-22.1799 -95.9817,2.062 z"
       fill="#ffffff"
       id="path37" />
    <path
       d="m 74.419,107.829 -1.7695,-2.535 C 105.857,82.0212 153.138,97.1927 155.134,97.8523 l -0.967,2.9477 c -0.473,-0.165 -47.837,-15.3158 -79.748,7.05 z"
       fill="#ffffff"
       id="path38" />
    <path
       d="M 153.303,100.078 C 152.809,99.1921 102.545,10.719 34.4216,3.07141 L 34.7714,0 C 104.479,7.81251 155.484,97.6667 155.998,98.5531 l -2.695,1.5049 z"
       fill="#ffffff"
       id="path39" />
    <path
       d="M 153.303,100.079 C 152.891,99.3365 111.207,26.5503 47.569,19.15 l 0.3497,-3.0714 C 113.141,23.6644 155.566,97.8111 155.978,98.5532 l -2.696,1.5258 z"
       fill="#ffffff"
       id="path40" />
    <path
       d="M 153.365,100.161 C 152.953,99.5218 111.947,36.6301 59.8315,34.0122 l 0.1646,-3.092 c 53.6999,2.7003 95.5489,66.9113 95.9819,67.571 l -2.593,1.6698 z"
       fill="#ffffff"
       id="path41" />
    <path
       d="M 153.385,100.202 C 153.035,99.7074 117.688,50.0702 72.1146,48.9983 l 0.0823,-3.0921 c 47.1571,1.1132 83.3691,52.0079 83.7191,52.5232 z"
       fill="#ffffff"
       id="path42" />
    <path
       d="m 153.447,100.285 c -0.309,-0.3921 -31.5,-39.1042 -70.4483,-38.0941 l -0.0823,-3.092 C 123.49,57.9651 154.558,96.7185 155.875,98.3675 l -2.408,1.9175 z"
       fill="#ffffff"
       id="path43" />
  </g>
  <defs
     id="defs43">
    <clipPath
       id="clip0_58_12">
      <rect
         width="315"
         height="377"
         fill="#ffffff"
         id="rect43"
         x="0"
         y="0" />
    </clipPath>
  </defs>
</svg>

<svg width="315" height="264" viewBox="0 0 315 264" fill="none" xmlns="http://www.w3.org/2000/svg">
<g clip-path="url(#clip0_58_12)">
<path d="M180.441 377H134.559L153.2 97.7698H161.8L180.441 377ZM137.872 373.908H177.149L158.92 100.862H156.101L137.872 373.908Z" fill="white"/>
<path d="M169.779 253.248L141.992 274.052L143.839 276.529L171.627 255.725L169.779 253.248Z" fill="white"/>
<path d="M168.488 233.572L143.417 252.267L145.259 254.747L170.33 236.052L168.488 233.572Z" fill="white"/>
<path d="M167.165 213.859L144.875 230.498L146.719 232.978L169.009 216.338L167.165 213.859Z" fill="white"/>
<path d="M165.84 194.101L146.322 208.671L148.166 211.151L167.683 196.58L165.84 194.101Z" fill="white"/>
<path d="M164.511 174.4L147.793 186.903L149.639 189.381L166.358 176.877L164.511 174.4Z" fill="white"/>
<path d="M163.219 154.67L149.232 165.119L151.077 167.598L165.064 157.149L163.219 154.67Z" fill="white"/>
<path d="M161.905 134.967L150.689 143.346L152.534 145.824L163.75 137.446L161.905 134.967Z" fill="white"/>
<path d="M160.574 115.198L152.155 121.508L154.004 123.984L162.422 117.674L160.574 115.198Z" fill="white"/>
<path d="M300.968 162.001C262.863 104.902 161.327 100.903 160.319 100.862L160.422 97.7698C161.45 97.811 264.551 101.851 303.54 160.27L300.968 161.981V162.001Z" fill="white"/>
<path d="M280.661 157.693C244.799 104.449 161.142 100.882 160.298 100.862L160.401 97.7698C161.265 97.7904 246.486 101.439 283.212 155.962L280.661 157.693Z" fill="white"/>
<path d="M261.855 153.632C235.561 108.489 160.957 100.924 160.195 100.862L160.483 97.7903C161.245 97.8727 237.412 105.562 264.509 152.086L261.855 153.653V153.632Z" fill="white"/>
<path d="M242.927 149.592C220.994 109.519 160.771 100.944 160.154 100.862L160.566 97.7903C161.183 97.8727 222.948 106.675 245.622 148.108L242.927 149.592Z" fill="white"/>
<path d="M226.24 145.985C209.266 110.818 160.566 100.924 160.072 100.841L160.668 97.811C162.726 98.2233 211.385 108.118 229.038 144.645L226.261 145.985H226.24Z" fill="white"/>
<path d="M207.641 142.047C190.337 106.86 160.38 100.882 160.092 100.841L160.648 97.7903C161.944 98.0376 192.395 104.036 210.418 140.687L207.641 142.047Z" fill="white"/>
<path d="M190.481 138.172C182.848 111.23 159.969 100.821 159.722 100.738L160.957 97.9141C161.944 98.3469 185.399 108.942 193.444 137.348L190.481 138.193V138.172Z" fill="white"/>
<path d="M161.059 100.697L159.64 97.9552C160.566 97.4811 252.494 50.606 315 82.5157L313.601 85.2779C252.514 54.0897 161.965 100.243 161.059 100.717V100.697Z" fill="white"/>
<path d="M161.059 100.697L159.64 97.9553C160.401 97.5637 236.548 59.0371 295.166 88.6792L293.767 91.4415C236.569 62.5207 161.78 100.326 161.039 100.697H161.059Z" fill="white"/>
<path d="M160.977 100.738L159.722 97.914C160.422 97.6048 230.643 67.0556 276.957 94.4303L275.394 97.0894C230.438 70.5393 161.656 100.429 160.957 100.738H160.977Z" fill="white"/>
<path d="M256.897 102.82C218.257 78.5785 161.492 100.532 160.915 100.759L159.784 97.8728C160.36 97.646 218.566 75.1155 258.543 100.181L256.897 102.799V102.82Z" fill="white"/>
<path d="M240.581 107.829C208.669 85.4634 161.306 100.635 160.833 100.779L159.866 97.8315C161.862 97.1719 209.163 82.021 242.35 105.273L240.581 107.808V107.829Z" fill="white"/>
<path d="M161.697 100.078L159.002 98.5736C159.516 97.6666 210.521 7.83302 280.229 0.0205078L280.578 3.09192C212.455 10.7395 162.191 99.192 161.697 100.099V100.078Z" fill="white"/>
<path d="M161.697 100.078L159.002 98.5529C159.413 97.8108 201.839 23.6641 267.061 16.0784L267.411 19.1498C203.732 26.55 162.088 99.3362 161.677 100.078H161.697Z" fill="white"/>
<path d="M161.656 100.161L159.064 98.4912C159.475 97.8521 201.345 33.6205 255.045 30.9202L255.189 34.0122C203.053 36.6301 162.068 99.5218 161.656 100.161Z" fill="white"/>
<path d="M161.615 100.202L159.084 98.4292C159.455 97.9138 195.666 47.0191 242.803 45.906L242.885 48.998C197.271 50.0699 161.965 99.7072 161.615 100.202Z" fill="white"/>
<path d="M161.574 100.284L159.146 98.3674C160.442 96.739 190.728 59.0781 230.376 59.0781C230.952 59.0781 231.508 59.0781 232.084 59.0987L232.001 62.1908C192.93 61.1189 161.862 99.8928 161.553 100.284H161.574Z" fill="white"/>
<path d="M14.0526 162.001L11.4807 160.29C50.4699 101.872 153.57 97.8315 154.599 97.7903L154.702 100.882C153.673 100.924 52.1571 104.923 14.0526 162.022V162.001Z" fill="white"/>
<path d="M34.3599 157.693L31.8086 155.962C68.5346 101.439 153.755 97.7904 154.619 97.7698L154.722 100.862C153.879 100.882 70.2011 104.49 34.3599 157.693Z" fill="white"/>
<path d="M53.1447 153.632L50.47 152.066C77.567 105.541 153.735 97.8316 154.496 97.7698L154.784 100.841C154.043 100.903 79.4187 108.468 53.1447 153.612V153.632Z" fill="white"/>
<path d="M72.094 149.592L69.3782 148.108C92.0516 106.675 153.817 97.8727 154.434 97.7903L154.846 100.862C154.249 100.944 93.9856 109.54 72.0735 149.592H72.094Z" fill="white"/>
<path d="M88.7802 145.985L86.0026 144.645C103.635 108.097 152.295 98.2027 154.373 97.811L154.969 100.841C154.475 100.944 105.754 110.859 88.8007 145.985H88.7802Z" fill="white"/>
<path d="M107.38 142.047L104.602 140.687C122.605 104.057 153.076 98.0376 154.373 97.7903L154.928 100.841C154.619 100.903 124.663 106.881 107.38 142.047Z" fill="white"/>
<path d="M124.519 138.172L121.556 137.327C129.601 108.922 153.035 98.3264 154.043 97.8936L155.278 100.718C155.052 100.821 132.152 111.21 124.519 138.152V138.172Z" fill="white"/>
<path d="M153.941 100.697C153.035 100.223 62.4856 54.0692 1.39909 85.2574L0 82.4952C62.5062 50.5855 154.434 97.4606 155.36 97.9347L153.941 100.676V100.697Z" fill="white"/>
<path d="M153.941 100.697C153.2 100.305 78.4105 62.5207 21.2126 91.4415L19.8135 88.6792C78.431 59.0371 154.578 97.5637 155.34 97.9553L153.92 100.697H153.941Z" fill="white"/>
<path d="M154.023 100.738C153.344 100.429 84.5418 70.5394 39.5859 97.0896L38.0222 94.4304C84.3361 67.0764 154.558 97.6049 155.257 97.9141L154.002 100.738H154.023Z" fill="white"/>
<path d="M58.1033 102.82L56.4573 100.202C96.4341 75.1155 154.62 97.6666 155.216 97.8934L154.085 100.779C153.509 100.552 96.7427 78.5991 58.1033 102.841V102.82Z" fill="white"/>
<path d="M74.419 107.829L72.6495 105.294C105.857 82.0212 153.138 97.1927 155.134 97.8523L154.167 100.8C153.694 100.635 106.33 85.4842 74.419 107.85V107.829Z" fill="white"/>
<path d="M153.303 100.078C152.809 99.1921 102.545 10.719 34.4216 3.07141L34.7714 0C104.479 7.81251 155.484 97.6667 155.998 98.5531L153.303 100.058V100.078Z" fill="white"/>
<path d="M153.303 100.079C152.891 99.3365 111.207 26.5503 47.569 19.15L47.9187 16.0786C113.141 23.6644 155.566 97.8111 155.978 98.5532L153.282 100.079H153.303Z" fill="white"/>
<path d="M153.365 100.161C152.953 99.5218 111.947 36.6301 59.8315 34.0122L59.9961 30.9202C113.696 33.6205 155.545 97.8315 155.978 98.4912L153.385 100.161H153.365Z" fill="white"/>
<path d="M153.385 100.202C153.035 99.7074 117.688 50.0702 72.1146 48.9983L72.1969 45.9062C119.354 47.0194 155.566 97.9141 155.916 98.4294L153.385 100.202Z" fill="white"/>
<path d="M153.447 100.285C153.138 99.8929 121.947 61.1808 82.9987 62.1909L82.9164 59.0989C123.49 57.9651 154.558 96.7185 155.875 98.3675L153.467 100.285H153.447Z" fill="white"/>
</g>
<defs>
<clipPath id="clip0_58_12">
<rect width="315" height="377" fill="white"/>
</clipPath>
</defs>
</svg>
